flags/qa.svg

<svg id="qatar_flag" xmlns="http://www.w3.org/2000/svg" viewBox="0 0 762 300">
<rect width="762" fill="#8D1B3D" height="300"/>
<path d="m0 0v300h240l60.97-16.66-60.97-16.68 60.97-16.66-60.97-16.66 60.97-16.68-60.97-16.66 60.97-16.66-60.97-16.68 60.97-16.66-60.97-16.66 60.97-16.68-60.97-16.66 60.97-16.656-60.97-16.688 60.97-16.656-60.97-16.656 60.97-16.688-60.97-16.656h-240z" fill="#fff"/>
</svg>

<svg xmlns="http://www.w3.org/2000/svg" viewBox="0 0 762 300">
<path fill="#8D1B3D" d="M0 0h762v300H0z"/>
<path d="M0 0v300h240l60.97-16.66L240 266.66 300.97 250 240 233.34l60.97-16.68L240 200l60.97-16.66L240 166.66 300.97 150 240 133.34l60.97-16.68L240 100l60.97-16.656L240 66.656 300.97 50 240 33.344l60.97-16.688L240 0H0z" fill="#fff"/>
</svg>
